svg/tag_heart.svg

<svg xmlns="http://www.w3.org/2000/svg" viewBox="0 0 24 24"><path d="m21.41 11.58-9-9C12.05 2.22 11.55 2 11 2H4a2 2 0 0 0-2 2v7c0 .55.22 1.05.59 1.42l9 9c.36.36.86.58 1.41.58s1.05-.22 1.41-.59l7-7c.37-.36.59-.86.59-1.41s-.23-1.06-.59-1.42M5.5 7A1.5 1.5 0 0 1 4 5.5 1.5 1.5 0 0 1 5.5 4 1.5 1.5 0 0 1 7 5.5 1.5 1.5 0 0 1 5.5 7m11.77 8.27L13 19.54l-4.27-4.27A2.52 2.52 0 0 1 8 13.5a2.5 2.5 0 0 1 2.5-2.5c.69 0 1.32.28 1.77.74l.73.72.73-.73c.45-.45 1.08-.73 1.77-.73a2.5 2.5 0 0 1 2.5 2.5c0 .69-.28 1.32-.73 1.77"/></svg>

<?xml version="1.0" encoding="UTF-8"?><!DOCTYPE svg PUBLIC "-//W3C//DTD SVG 1.1//EN" "http://www.w3.org/Graphics/SVG/1.1/DTD/svg11.dtd"><svg xmlns="http://www.w3.org/2000/svg" xmlns:xlink="http://www.w3.org/1999/xlink" version="1.1" id="mdi-tag-heart" width="24" height="24" viewBox="0 0 24 24"><path d="M21.41,11.58L12.41,2.58C12.05,2.22 11.55,2 11,2H4A2,2 0 0,0 2,4V11C2,11.55 2.22,12.05 2.59,12.42L11.59,21.42C11.95,21.78 12.45,22 13,22C13.55,22 14.05,21.78 14.41,21.41L21.41,14.41C21.78,14.05 22,13.55 22,13C22,12.45 21.77,11.94 21.41,11.58M5.5,7A1.5,1.5 0 0,1 4,5.5A1.5,1.5 0 0,1 5.5,4A1.5,1.5 0 0,1 7,5.5A1.5,1.5 0 0,1 5.5,7M17.27,15.27L13,19.54L8.73,15.27C8.28,14.81 8,14.19 8,13.5A2.5,2.5 0 0,1 10.5,11C11.19,11 11.82,11.28 12.27,11.74L13,12.46L13.73,11.73C14.18,11.28 14.81,11 15.5,11A2.5,2.5 0 0,1 18,13.5C18,14.19 17.72,14.82 17.27,15.27Z" /></svg>
